svg/dice_d12.svg

<svg xmlns="http://www.w3.org/2000/svg" viewBox="0 0 24 24"><path d="M12 2 1.5 9.64 5.5 22h13l4-12.36zm-1.5 15H8.89v-6.11L7 11.47v-1.28L10.31 9h.19zm6.5 0h-5.34v-1.09s3.57-3.46 3.57-4.51c0-1.28-1.05-1.15-1.05-1.15-.68.05-1.18.62-1.18 1.3h-1.56c.06-1.46 1.28-2.61 2.83-2.55 2.47 0 2.5 1.85 2.5 2.3 0 1.77-3.19 4.47-3.19 4.47l3.42-.02z"/></svg>

<?xml version="1.0" encoding="UTF-8"?><!DOCTYPE svg PUBLIC "-//W3C//DTD SVG 1.1//EN" "http://www.w3.org/Graphics/SVG/1.1/DTD/svg11.dtd"><svg xmlns="http://www.w3.org/2000/svg" xmlns:xlink="http://www.w3.org/1999/xlink" version="1.1" id="mdi-dice-d12" width="24" height="24" viewBox="0 0 24 24"><path d="M12 2L1.5 9.64L5.5 22H18.5L22.5 9.64L12 2M10.5 17H8.89V10.89L7 11.47V10.19L10.31 9H10.5V17M17 17H11.66V15.91C11.66 15.91 15.23 12.45 15.23 11.4C15.23 10.12 14.18 10.25 14.18 10.25C13.5 10.3 13 10.87 13 11.55H11.44C11.5 10.09 12.72 8.94 14.27 9C16.74 9 16.77 10.85 16.77 11.3C16.77 13.07 13.58 15.77 13.58 15.77L17 15.75V17Z" /></svg>
